X:1
T:Сарабанда
T:Сарабанда
T:из Партиты №1 для скрипки h-moll
T:И. С. Бах Переложение А. Сеговии
C:И.С. Бах
%%score ( 1 2 3 )
L:1/8
Q:1/4=73
M:3/4
K:D
V:1 treble-8 nm="Classical Guitar" snm="Guit."
V:2 treble-8 
V:3 treble-8 
V:1
"^Andante""^II\n"!f! !arpeggio![FBdf]2"^VII\n" !arpeggio!!3!!2![Bdg]2 !4!f!1!e | %1
!8va(! !3!!4![d'f']3 !4!e'!2!d'!1!c'!8va)! | !0!B!4!e!>(!!8va(! !2!d'c' !4!d'!0!b!>)!!8va)! | %3
 !2!^A3!<(!!8va(! !4!g!3!f!1!=e!<)!!8va)! |"^2" !0!B2!8va(! =a2 (!4!g/!3!f/g)!8va)! | %5
 (!1!c3 !2!d) !0!e2 | !0!e!2!d!>(! !4!e!2!d !1!c!0!B!>)! |1 %7
"^II\n" f3!8va(!!8va(!!<(! z z2!8va)!!8va)!!<)! :|2"^II\n" f6 |: %9
"^3"!f!!8va(! [c'f'^a']2 [c'f'a']2 [c'f'a']2!8va)! | z !1!f!1!b!8va(!!4!=a' !3!^g'!1!f'!8va)! | %11
 !4!!0![^GBe]2!8va(! f'2 !4!^g'2!8va)! | !4!a3!p! !2!=g!1!f!0!e | %13
"^4""^VII\n" !3!^d!4!=c'!2!b!0!e!2!d!4!a | !1!=c/!0!B/c/A/ !0!B!4!a g2 | %15
!mf! !4!g!3!f !3!f!0!e!8va(! !4!e'!3!^d'!8va)! | !0![GBe]2 z2 z2 | %17
"^5" !1!!2!!0![Ece]2 !2!d!1!c!0!B!1!A | !2!d3 !4!e !4!f2 | !4!b2!8va(! !4!g'2 f'2!8va)! | %20
 e3 !4!f!>(! !4!g2!>)! |"^6"!mf! !0!B!2!^A/(!2!g/ !1!f)!4!e!2!d!1!c | !2!d3 !4!e !3!!4![cf]2 | %23
 !2!!4![Bf]2 !4!e!2!d!0!!1![Gc]!0!B |"^II\n" ^A3!mp! !4!G!3!F!1!E | %25
"^7" !3!!0![FB]2!8va(! [e^ac']2 [fbd']2!8va)! | !1!d2 z2 z2 | %27
!mf!!<(! (!2!c/!0!B/c) (!4!d/!2!c/d) !0![Be]2!<)! |!<(! !0!e2 z2 z2!<)! | %29
"^8"!f! !3!!4![fb]2 !3!!4![e=a]2 !3!!4![dg]2 | !1!!2![E^A]!8va(!!2!g'!1!f'!4!e' !1!d'2!8va)! | %31
 z c"^II\n" Tc3 B | !1!!0![FB]6 :| %33
V:2
 B,2 !1![E,E]2 !3!!2![A,Ac]2 |!8va(! !0!d4 z2!8va)! | !0!G2!8va(! !1!e2 !3!^e2!8va)! | %3
 !3!F2 !1!F,2!8va(! z2!8va)! | !4!!3![DF]2!8va(! !3![ce]2 B2!8va)! | !0![A,G]4 !1!!4![^A,F]2 | %6
 !1!!3![B,F]2 !0!G2 !2!G,2 |1 !arpeggio![F,F^A]3!8va(!!8va(! edc!8va)!!8va)! :|2 %8
 !arpeggio![F,F^A]6 |:!8va(! !4!f2 !3!e2 f2!8va)! | !0![DB]6 | %11
 !0!D2!8va(! !3![cac']2 !1!!2![Bed']2!8va)! | !0![A,Ec]2 z2 z2 | !1!A3 !0!G !3!F2 | %14
 !2!E2 !1!^D2 [EB]2 | !0!!2!!1![A,A=c]2 !2!!0![B,GB]2!8va(! !1!!2![Bfa]2!8va)! | %16
 E3!f! !4!D!3!^C!1!B, | !0!A,2 z2 !4!G2 | !3!F2 !1!E2 !0!D2 | [G,DB]2!8va(! [eb]2 [dd']2!8va)! | %20
 [Ac]2 z2 !0!e!2!c | !3!!1![CE] z z2 z2 | !1!!3![B,F]4 !0!!1![=A,F]2 | !1!!3![G,G]2 z2 E,2 | %24
 [F,CF]3 z z2 | !4!D2!8va(! !3!c2 B2!8va)! | z!<(! !4!^G!2!B!2!d!4!^gd!<)! | !1!E2 D2 !3!!1![CE]2 | %28
 !3!^A!0!B!2!c!2!e !4!^a!2!e | !0!D2 !1!C2 !1!B,2 | C!8va(! z z2 !2!!4![Bf]2!8va)! | %31
 E,2 [F,E^A]3 z | !4!!2![B,D]6 :| %33
V:3
 x6 |!8va(! x6!8va)! | x2!8va(! x4!8va)! | x3!8va(! x3!8va)! | x2!8va(! x4!8va)! | x6 | x6 |1 %7
 x3!8va(!!8va(! x3!8va)!!8va)! :|2 x6 |:!8va(! x6!8va)! | x3!8va(! x3!8va)! | x2!8va(! x4!8va)! | %12
 x6 | x6 | x6 | x4!8va(! x2!8va)! | z2 E,4 | x6 | x6 | x2!8va(! x4!8va)! | x6 | x6 | x6 | x6 | x6 | %25
 x2!8va(! x4!8va)! | E,6 | x6 | !1!F,2 z2 !1!F2 | x6 | x!8va(! x5!8va)! | x6 | x6 :| %33

